X: 1
T: The Honeymoon
T: 8x32R 3C (Graded)
P: O Gin I Were Where Gadie Rins
C: from Sylvia Miskoe via John Chambers
C: mods. by T. Traub 7-2-2011
M: 2/4
L: 1/16
K: G
|: E2 | "G"D2DE G2GA | "G"B2B2 B2AG | "G"B2B2 "Em"B2AG | "Am"A2AB "D"AGFE | "G"D2DE G2GA | "G"B2B2 B2AG | "C"d2D2 "D"D2EF | "G"G6  :|
|: e2 | "G"d2B2 B2d2 | "D7"c2A2 A2dc | "G"B2G2 B2d2 | "C"gfgb "D7"agfe | "G"d2B2 "Em"B2d2 | "Am"c2A2 "D"A2dc | "G"B2G2 "D"B2d2 | "G"g6 :|
